img/icons/corp/1.svg

<svg width="62" height="62" viewBox="0 0 62 62" fill="none" xmlns="http://www.w3.org/2000/svg">
<path d="M30.9993 1C14.458 1 1 14.4661 1 31.0125C1 47.5603 14.458 61.0264 30.9993 61.0264C47.5399 61.0264 61 47.5603 61 31.0125C61 14.464 47.5399 1 30.9993 1ZM6.63496 23.4672C9.97902 12.6268 19.7259 5.39144 30.9112 5.39144C42.107 5.39144 51.8545 12.6268 55.1776 23.3987C55.2755 23.7631 55.9175 26.4287 54.265 28.0895C53.4685 28.8885 52.3503 29.3138 51.0322 29.3138C49.8853 29.3138 48.6049 28.9864 47.3238 28.3694C45.9552 27.7075 44.4077 26.6952 42.7727 25.622C39.2434 23.3042 34.8427 20.4239 30.9084 20.3812C26.9846 20.4239 22.7713 23.1853 19.0531 25.6171C17.4175 26.6931 15.8713 27.7075 14.5 28.3694C11.751 29.7 9.04615 29.5895 7.56154 28.0923C5.91329 26.4287 6.55385 23.7638 6.63496 23.4672ZM29.2392 56.0501C28.9469 56.3089 28.5713 56.4481 28.1867 56.4481C28.1273 56.4481 28.0657 56.4432 28.0056 56.439C16.7909 55.128 7.64475 46.4437 5.75944 35.3228C5.68462 34.8659 5.80909 34.3909 6.10839 34.0334C6.40979 33.6836 6.85105 33.48 7.31608 33.48C19.4846 33.48 29.7671 43.2759 29.7671 54.8719C29.7643 55.3176 29.572 55.7478 29.2392 56.0501ZM26.7042 31.0125C26.7042 28.645 28.6329 26.7155 30.9993 26.7155C33.3664 26.7155 35.2937 28.645 35.2937 31.0125C35.2937 33.3758 33.3664 35.3088 30.9993 35.3088C28.6329 35.3088 26.7042 33.3758 26.7042 31.0125ZM33.9958 56.4397C33.9357 56.4439 33.8734 56.4488 33.8154 56.4488C33.4315 56.4488 33.0538 56.3096 32.7615 56.0508C32.4266 55.7485 32.2364 55.3183 32.2364 54.8691C32.2364 43.2752 42.5189 33.4793 54.6867 33.4793C55.1496 33.4793 55.593 33.6829 55.8944 34.0348C56.193 34.3895 56.3217 34.8652 56.2441 35.3242C54.3573 46.4437 45.2105 55.128 33.9958 56.4397Z" fill="black" stroke="black" stroke-miterlimit="10"/>
</svg>

<svg width="62" height="62" fill="none" xmlns="http://www.w3.org/2000/svg"><path d="M31 1C14.457 1 1 14.466 1 31.012 1 47.56 14.458 61.026 31 61.026c16.54 0 30-13.466 30-30.014C61 14.465 47.54 1 31 1zM6.634 23.467C9.978 12.627 19.724 5.391 30.91 5.391c11.196 0 20.944 7.236 24.267 18.008.098.364.74 3.03-.913 4.69-.797.8-1.915 1.225-3.233 1.225-1.147 0-2.427-.328-3.708-.945-1.369-.662-2.916-1.674-4.551-2.747-3.53-2.318-7.93-5.198-11.865-5.24-3.923.042-8.137 2.803-11.855 5.235-1.636 1.076-3.182 2.09-4.553 2.752-2.749 1.331-5.454 1.22-6.938-.277-1.649-1.663-1.008-4.328-.927-4.625zM29.239 56.05a1.588 1.588 0 0 1-1.052.398c-.06 0-.121-.005-.181-.009C16.79 55.128 7.645 46.444 5.759 35.323a1.61 1.61 0 0 1 .35-1.29c.3-.35.742-.553 1.207-.553 12.169 0 22.451 9.796 22.451 21.392a1.612 1.612 0 0 1-.528 1.178zm-2.535-25.037A4.303 4.303 0 0 1 31 26.715a4.302 4.302 0 0 1 4.295 4.297A4.304 4.304 0 0 1 31 35.309a4.305 4.305 0 0 1-4.295-4.296zm7.292 25.427c-.06.004-.123.009-.18.009-.385 0-.762-.14-1.055-.398a1.593 1.593 0 0 1-.525-1.182c0-11.594 10.283-21.39 22.45-21.39.464 0 .907.204 1.208.556.299.355.428.83.35 1.29-1.887 11.119-11.033 19.803-22.248 21.115z" fill="#000" stroke="#000" stroke-miterlimit="10"/></svg>
